usr/share/icons/biglinux-icons-material/scalable/apps/marlin.svg

<?xml version="1.0" encoding="UTF-8" standalone="no"?>
<svg
   width="24"
   height="24"
   viewBox="0 0 6.349875 6.349875"
   version="1.1"
   id="svg4"
   sodipodi:docname="marlin.svg"
   inkscape:version="1.3 (0e150ed6c4, 2023-07-21)"
   xmlns:inkscape="http://www.inkscape.org/namespaces/inkscape"
   xmlns:sodipodi="http://sodipodi.sourceforge.net/DTD/sodipodi-0.dtd"
   xmlns="http://www.w3.org/2000/svg"
   xmlns:svg="http://www.w3.org/2000/svg">
  <defs
     id="defs4">
    <linearGradient
       id="paint0_linear_201_48"
       x1="23"
       y1="0.99999899"
       x2="1"
       y2="12"
       gradientUnits="userSpaceOnUse"
       gradientTransform="scale(0.26457812)">
      <stop
         stop-color="#04BACC"
         id="stop5" />
      <stop
         offset="1"
         stop-color="#2D85C6"
         id="stop6" />
    </linearGradient>
    <linearGradient
       id="paint1_linear_201_48"
       x1="21"
       y1="4"
       x2="3"
       y2="4"
       gradientUnits="userSpaceOnUse"
       gradientTransform="scale(0.26457812)">
      <stop
         stop-opacity="0.5"
         id="stop7" />
      <stop
         offset="0.890123"
         id="stop8" />
      <stop
         offset="1"
         stop-opacity="0"
         id="stop9" />
    </linearGradient>
    <linearGradient
       id="paint2_linear_201_48"
       x1="12"
       y1="3"
       x2="11.5"
       y2="8"
       gradientUnits="userSpaceOnUse"
       gradientTransform="scale(0.26457812)">
      <stop
         stop-color="#DDDDDD"
         id="stop10" />
      <stop
         offset="1"
         stop-color="#CCCCCC"
         stop-opacity="0"
         id="stop11" />
    </linearGradient>
    <linearGradient
       id="paint3_linear_201_48"
       x1="23"
       y1="9"
       x2="1.01236"
       y2="9.52141"
       gradientUnits="userSpaceOnUse"
       gradientTransform="scale(0.26457812)">
      <stop
         stop-opacity="0.5"
         id="stop12" />
      <stop
         offset="1"
         id="stop13" />
    </linearGradient>
    <linearGradient
       id="paint4_linear_201_48"
       x1="23"
       y1="5.4000001"
       x2="1.42949"
       y2="23.511499"
       gradientUnits="userSpaceOnUse"
       gradientTransform="scale(0.26457812)">
      <stop
         stop-color="#04BACC"
         id="stop14" />
      <stop
         offset="1"
         stop-color="#2D85C6"
         id="stop15" />
    </linearGradient>
    <linearGradient
       id="paint5_linear_201_48"
       x1="15"
       y1="5.5"
       x2="5.5"
       y2="19.5"
       gradientUnits="userSpaceOnUse"
       gradientTransform="scale(0.26457812)">
      <stop
         stop-color="#42F8FF"
         id="stop16" />
      <stop
         offset="1"
         stop-color="#0060F0"
         id="stop17" />
    </linearGradient>
  </defs>
  <sodipodi:namedview
     id="namedview4"
     pagecolor="#ffffff"
     bordercolor="#000000"
     borderopacity="0.25"
     inkscape:showpageshadow="2"
     inkscape:pageopacity="0.0"
     inkscape:pagecheckerboard="0"
     inkscape:deskcolor="#d1d1d1"
     inkscape:zoom="3.1679688"
     inkscape:cx="-91.856967"
     inkscape:cy="-5.2083847"
     inkscape:window-width="2560"
     inkscape:window-height="998"
     inkscape:window-x="0"
     inkscape:window-y="0"
     inkscape:window-maximized="1"
     inkscape:current-layer="svg4" />
  <rect
     opacity="0.8125"
     x="0.26457813"
     y="0.26457813"
     width="5.8207188"
     height="5.8207188"
     rx="1.7462156"
     fill="url(#paint0_linear_201_48)"
     id="rect1"
     style="fill:url(#paint0_linear_201_48);stroke-width:0.264578" />
  <rect
     opacity="0.125"
     x="0.79373437"
     y="0.59530079"
     width="4.7624063"
     height="4.7624063"
     rx="1.1641438"
     fill="url(#paint1_linear_201_48)"
     fill-opacity="0.875"
     id="rect2"
     style="fill:url(#paint1_linear_201_48);stroke-width:0.264578" />
  <rect
     x="0.8598789"
     y="0.8598789"
     width="4.6301169"
     height="4.6301169"
     rx="1.0979992"
     fill="#cccccc"
     stroke="url(#paint2_linear_201_48)"
     stroke-width="0.132289"
     id="rect3-3"
     style="stroke:url(#paint2_linear_201_48)" />
  <path
     opacity="0.125"
     d="m 0.26457812,1.9864023 c 0,-0.4395093 0.35629148,-0.7958008 0.79580068,-0.7958008 h 1.106643 c 0.2842945,0 0.559932,0.097878 0.7805372,0.2771774 v 0 c 0.2206317,0.1792993 0.4962427,0.2771773 0.7805584,0.2771773 h 1.5613813 c 0.4395172,0 0.7957981,0.3562915 0.7957981,0.7958007 v 1.560204 c 0,0.9644137 -0.7818019,1.7462156 -1.7462156,1.7462156 H 2.0107937 c -0.9644084,0 -1.74621558,-0.7818019 -1.74621558,-1.7462156 z"
     fill="url(#paint3_linear_201_48)"
     fill-opacity="0.875"
     id="path3-6"
     style="fill:url(#paint3_linear_201_48);stroke-width:0.264578" />
  <path
     d="m 0.26457812,2.2245226 c 0,-0.4395093 0.35629148,-0.7958008 0.79580068,-0.7958008 h 1.106643 c 0.2842945,0 0.559932,0.097878 0.7805372,0.2771774 v 0 c 0.2206317,0.1792993 0.4962427,0.2771773 0.7805584,0.2771773 h 1.5613813 c 0.4395172,0 0.7957981,0.3562915 0.7957981,0.795814 v 1.5601907 c 0,0.9644137 -0.7818019,1.7462156 -1.7462156,1.7462156 H 2.0107937 c -0.9644084,0 -1.74621558,-0.7818019 -1.74621558,-1.7462156 z"
     fill="url(#paint4_linear_201_48)"
     id="path4-1"
     style="opacity:0.875;fill:url(#paint4_linear_201_48);stroke-width:0.264578" />
  <path
     d="M 5.98608,2.7788905 V 4.3390812 C 5.98608,5.2487007 5.2487007,5.98608 4.3390812,5.98608 H 2.0107937 c -0.9096116,0 -1.64699878,-0.7373793 -1.64699878,-1.6469988 V 2.2245226 c 0,-0.3847125 0.31187145,-0.696584 0.69658388,-0.696584 h 1.106643 c 0.2615037,0 0.5150331,0.090031 0.7179645,0.2549555 0.2383055,0.1936738 0.5360352,0.2993992 0.8431311,0.2993992 h 1.5613813 c 0.3846966,0 0.6965813,0.3118715 0.6965813,0.6965972 z"
     stroke="url(#paint5_linear_201_48)"
     stroke-opacity="0.375"
     stroke-width="0.198434"
     stroke-linejoin="round"
     id="path5"
     style="opacity:0.875;stroke:url(#paint5_linear_201_48);fill:none" />
  <path
     d="M 3.1754757,2.4888613 A 0.14148851,0.14148851 0 0 0 3.0748736,2.5308233 L 1.7659704,3.8391885 a 0.14256446,0.14256446 0 1 0 0.2017422,0.2012042 l 0.068861,-0.068861 v 1.1631108 h 0.285129 V 3.6874787 L 3.1749374,2.8320919 4.02871,3.6864028 V 5.1335666 H 4.3138392 V 3.9715317 l 0.068323,0.068323 A 0.14256446,0.14256446 0 1 0 4.5839048,3.8386509 L 3.2760778,2.5308236 A 0.14148851,0.14148851 0 0 0 3.1754757,2.4888613 Z m 0,1.6494439 A 0.28405297,0.28405297 0 0 0 2.8903468,4.4228962 V 5.1346425 H 3.4600667 V 4.4228962 a 0.28405297,0.28405297 0 0 0 -0.285129,-0.285129 z"
     opacity="0.15"
     style="stroke-width:1;paint-order:stroke fill markers"
     id="path6" />
</svg>

<svg xmlns="http://www.w3.org/2000/svg" width="24" height="24" viewBox="0 0 6.35 6.35"><defs><linearGradient id="a" x1="23" x2="1" y1="1" y2="12" gradientTransform="scale(.26458)" gradientUnits="userSpaceOnUse"><stop stop-color="#04BACC"/><stop offset="1" stop-color="#2D85C6"/></linearGradient><linearGradient id="b" x1="21" x2="3" y1="4" y2="4" gradientTransform="scale(.26458)" gradientUnits="userSpaceOnUse"><stop stop-opacity=".5"/><stop offset=".89"/><stop offset="1" stop-opacity="0"/></linearGradient><linearGradient id="c" x1="12" x2="11.5" y1="3" y2="8" gradientTransform="scale(.26458)" gradientUnits="userSpaceOnUse"><stop stop-color="#DDD"/><stop offset="1" stop-color="#CCC" stop-opacity="0"/></linearGradient><linearGradient id="d" x1="23" x2="1.012" y1="9" y2="9.521" gradientTransform="scale(.26458)" gradientUnits="userSpaceOnUse"><stop stop-opacity=".5"/><stop offset="1"/></linearGradient><linearGradient id="e" x1="23" x2="1.429" y1="5.4" y2="23.511" gradientTransform="scale(.26458)" gradientUnits="userSpaceOnUse"><stop stop-color="#04BACC"/><stop offset="1" stop-color="#2D85C6"/></linearGradient><linearGradient id="f" x1="15" x2="5.5" y1="5.5" y2="19.5" gradientTransform="scale(.26458)" gradientUnits="userSpaceOnUse"><stop stop-color="#42F8FF"/><stop offset="1" stop-color="#0060F0"/></linearGradient></defs><rect width="5.821" height="5.821" x=".265" y=".265" fill="url(#a)" opacity=".813" rx="1.746" style="fill:url(#a);stroke-width:.264578"/><rect width="4.762" height="4.762" x=".794" y=".595" fill="url(#b)" fill-opacity=".875" opacity=".125" rx="1.164" style="fill:url(#b);stroke-width:.264578"/><rect width="4.63" height="4.63" x=".86" y=".86" fill="#ccc" stroke="url(#c)" stroke-width=".132" rx="1.098" style="stroke:url(#c)"/><path fill="url(#d)" fill-opacity=".875" d="M.265 1.986c0-.44.356-.795.795-.795h1.107c.284 0 .56.097.78.277.221.18.497.277.781.277H5.29c.44 0 .796.356.796.796V4.1c0 .964-.782 1.746-1.746 1.746H2.011A1.746 1.746 0 0 1 .265 4.101z" opacity=".125" style="fill:url(#d);stroke-width:.264578"/><path fill="url(#e)" d="M.265 2.225c0-.44.356-.796.795-.796h1.107c.284 0 .56.098.78.277.221.18.497.277.781.277H5.29c.44 0 .796.356.796.796v1.56c0 .964-.782 1.746-1.746 1.746H2.011A1.746 1.746 0 0 1 .265 4.34z" style="opacity:.875;fill:url(#e);stroke-width:.264578"/><path stroke="url(#f)" stroke-linejoin="round" stroke-opacity=".375" stroke-width=".198" d="M5.986 2.779v1.56c0 .91-.737 1.647-1.647 1.647H2.011C1.1 5.986.364 5.25.364 4.34V2.225c0-.385.312-.697.696-.697h1.107c.262 0 .515.09.718.255.238.194.536.3.843.3H5.29c.385 0 .697.311.697.696z" style="opacity:.875;stroke:url(#f);fill:none"/><path d="M3.175 2.489a.141.141 0 0 0-.1.042L1.766 3.839a.143.143 0 1 0 .202.201l.069-.068v1.163h.285V3.687l.853-.855.854.854v1.448h.285V3.972l.068.068a.143.143 0 1 0 .202-.201L3.276 2.53a.141.141 0 0 0-.1-.042Zm0 1.65a.284.284 0 0 0-.285.284v.712h.57v-.712a.284.284 0 0 0-.285-.285z" opacity=".15" style="stroke-width:1;paint-order:stroke fill markers"/></svg>
